images/header/logo.svg

<svg width="109" height="50" viewBox="0 0 109 50" fill="none" xmlns="http://www.w3.org/2000/svg">
<path d="M0 11.5412C0 5.16719 5.16043 0 11.5261 0H38.4085C44.7742 0 49.9346 5.16719 49.9346 11.5412V38.4588C49.9346 44.8328 44.7742 50 38.4085 50H11.5261C5.16043 50 0 44.8328 0 38.4588V11.5412Z" fill="black"/>
<path d="M39.7583 23.4701C39.2365 20.074 36.3538 17.6072 32.9065 17.6072C32.5857 17.6072 32.2564 17.6286 31.9356 17.6714C31.5207 17.7271 31.1187 17.817 30.7338 17.9369C30.1051 18.1339 29.6731 18.7164 29.6731 19.3759V21.7356C30.4472 20.9048 31.5464 20.3909 32.791 20.3909C33.9501 20.3909 35.0322 20.832 35.832 21.6328C36.6361 22.438 37.0766 23.53 37.0766 24.6992C37.0766 27.1103 35.1904 29.0032 32.791 29.0075C31.6405 29.0075 30.567 28.5621 29.7714 27.757C28.9759 26.9519 28.5354 25.8683 28.5354 24.7035V14.7383C28.5354 14.0178 27.9514 13.4337 27.2309 13.4337C26.4011 13.4337 25.7297 13.4337 25.7297 13.4337V23.4701C25.7297 23.4701 25.7658 24.5929 25.88 25.3013C26.0593 26.414 26.1807 27.0779 26.6841 28.0728C27.1937 29.08 28.5397 30.288 28.5397 30.288C29.7672 31.2645 31.3026 31.8041 32.9194 31.8041C34.3008 31.8041 35.6224 31.4015 36.743 30.6349C39.1895 28.9647 40.2373 26.485 39.7711 23.4701H39.7583Z" fill="#FF5100"/>
<path d="M10.2892 23.4487C10.811 20.0525 13.6937 17.5857 17.141 17.5857C17.4618 17.5857 17.7911 17.6072 18.1119 17.65C18.5267 17.7057 18.9288 17.7956 19.3137 17.9155C19.9424 18.1125 20.3744 18.6949 20.3744 19.3545V21.7142C19.6003 20.8834 18.5011 20.3694 17.2565 20.3694C16.0974 20.3694 15.0153 20.8106 14.2155 21.6114C13.4114 22.4165 12.9709 23.5086 12.9709 24.6778C12.9709 27.0889 14.8571 28.9818 17.2565 28.9861C18.407 28.9861 19.4805 28.5407 20.276 27.7356C21.0716 26.9304 21.5121 25.8469 21.5121 24.6821V17.8513H22.8166C23.6463 17.8513 24.3178 18.5236 24.3178 19.3545V36.2837H23.009C22.1793 36.2837 21.5078 35.6113 21.5078 34.7805V30.2666C20.2803 31.243 18.7448 31.7826 17.1281 31.7826C15.7467 31.7826 14.4251 31.3801 13.3045 30.6135C10.858 28.9433 9.81016 26.4636 10.2764 23.4487H10.2892Z" fill="#FF5100"/>
<path d="M64.3779 29.7773C64.0658 30.033 63.6828 30.2247 63.2288 30.3526C62.7891 30.4804 62.3209 30.5443 61.8244 30.5443C60.5761 30.5443 59.6114 30.2176 58.9305 29.5642C58.2495 28.9108 57.9091 27.9591 57.9091 26.7091V21.2332H56.0365V19.1025H57.9091V16.5031H60.569V19.1025H63.6119V21.2332H60.569V26.6452C60.569 27.1991 60.7037 27.6253 60.9733 27.9236C61.2428 28.2077 61.6329 28.3497 62.1436 28.3497C62.7394 28.3497 63.2359 28.1935 63.6331 27.881L64.3779 29.7773Z" fill="black"/>
<path d="M71.2989 30.5443C70.1498 30.5443 69.1143 30.2957 68.1922 29.7986C67.2701 29.3014 66.5466 28.6125 66.0217 27.7318C65.511 26.8369 65.2557 25.8284 65.2557 24.7062C65.2557 23.5841 65.511 22.5827 66.0217 21.702C66.5466 20.8213 67.2701 20.1324 68.1922 19.6352C69.1143 19.138 70.1498 18.8895 71.2989 18.8895C72.4622 18.8895 73.5048 19.138 74.4269 19.6352C75.349 20.1324 76.0654 20.8213 76.5761 21.702C77.101 22.5827 77.3634 23.5841 77.3634 24.7062C77.3634 25.8284 77.101 26.8369 76.5761 27.7318C76.0654 28.6125 75.349 29.3014 74.4269 29.7986C73.5048 30.2957 72.4622 30.5443 71.2989 30.5443ZM71.2989 28.2645C72.2777 28.2645 73.0863 27.9378 73.7247 27.2844C74.3631 26.631 74.6823 25.7716 74.6823 24.7062C74.6823 23.6409 74.3631 22.7815 73.7247 22.1281C73.0863 21.4747 72.2777 21.148 71.2989 21.148C70.3201 21.148 69.5115 21.4747 68.8731 22.1281C68.2489 22.7815 67.9368 23.6409 67.9368 24.7062C67.9368 25.7716 68.2489 26.631 68.8731 27.2844C69.5115 27.9378 70.3201 28.2645 71.2989 28.2645Z" fill="black"/>
<path d="M85.0139 30.5443C83.8648 30.5443 82.8293 30.2957 81.9072 29.7986C80.9851 29.3014 80.2616 28.6125 79.7367 27.7318C79.226 26.8369 78.9707 25.8284 78.9707 24.7062C78.9707 23.5841 79.226 22.5827 79.7367 21.702C80.2616 20.8213 80.9851 20.1324 81.9072 19.6352C82.8293 19.138 83.8648 18.8895 85.0139 18.8895C86.1772 18.8895 87.2198 19.138 88.1419 19.6352C89.064 20.1324 89.7804 20.8213 90.2911 21.702C90.816 22.5827 91.0784 23.5841 91.0784 24.7062C91.0784 25.8284 90.816 26.8369 90.2911 27.7318C89.7804 28.6125 89.064 29.3014 88.1419 29.7986C87.2198 30.2957 86.1772 30.5443 85.0139 30.5443ZM85.0139 28.2645C85.9927 28.2645 86.8013 27.9378 87.4397 27.2844C88.0781 26.631 88.3973 25.7716 88.3973 24.7062C88.3973 23.6409 88.0781 22.7815 87.4397 22.1281C86.8013 21.4747 85.9927 21.148 85.0139 21.148C84.0351 21.148 83.2265 21.4747 82.5881 22.1281C81.9639 22.7815 81.6518 23.6409 81.6518 24.7062C81.6518 25.7716 81.9639 26.631 82.5881 27.2844C83.2265 27.9378 84.0351 28.2645 85.0139 28.2645Z" fill="black"/>
<path d="M93.6219 14.5855H96.2818V30.3952H93.6219V14.5855Z" fill="black"/>
<path d="M103.284 30.5443C102.362 30.5443 101.461 30.4236 100.581 30.1821C99.702 29.9406 98.9998 29.6352 98.4749 29.2659L99.4963 27.2418C100.007 27.5827 100.617 27.8597 101.326 28.0727C102.05 28.2716 102.759 28.371 103.454 28.371C105.043 28.371 105.837 27.952 105.837 27.1139C105.837 26.7162 105.632 26.4392 105.22 26.283C104.823 26.1267 104.178 25.9776 103.284 25.8355C102.348 25.6935 101.582 25.5301 100.986 25.3454C100.404 25.1608 99.8935 24.8412 99.4537 24.3866C99.0281 23.9179 98.8153 23.2716 98.8153 22.4477C98.8153 21.3682 99.2622 20.5088 100.156 19.8696C101.064 19.2162 102.284 18.8895 103.816 18.8895C104.596 18.8895 105.376 18.9818 106.157 19.1664C106.937 19.3369 107.575 19.5713 108.072 19.8696L107.05 21.8937C106.086 21.3255 105 21.0415 103.795 21.0415C103.014 21.0415 102.419 21.1622 102.007 21.4037C101.61 21.6309 101.411 21.9363 101.411 22.3199C101.411 22.746 101.624 23.0514 102.05 23.2361C102.49 23.4065 103.163 23.5699 104.071 23.7261C104.979 23.8682 105.724 24.0315 106.306 24.2162C106.887 24.4008 107.384 24.7133 107.795 25.1537C108.221 25.594 108.433 26.219 108.433 27.0287C108.433 28.094 107.972 28.9463 107.05 29.5855C106.128 30.2247 104.873 30.5443 103.284 30.5443Z" fill="black"/>
</svg>

<svg width="109" height="50" fill="none" xmlns="http://www.w3.org/2000/svg"><path d="M0 11.541C0 5.167 5.16 0 11.526 0h26.882c6.366 0 11.527 5.167 11.527 11.541V38.46c0 6.374-5.16 11.541-11.527 11.541H11.526C5.16 50 0 44.833 0 38.459V11.54z" fill="#000"/><path d="M39.758 23.47c-.522-3.396-3.404-5.863-6.852-5.863a7.313 7.313 0 00-2.173.33c-.628.197-1.06.78-1.06 1.439v2.36a4.225 4.225 0 013.118-1.345c1.16 0 2.241.441 3.041 1.242.804.805 1.245 1.897 1.245 3.066 0 2.411-1.887 4.304-4.286 4.308a4.213 4.213 0 01-3.02-1.25 4.31 4.31 0 01-1.236-3.054v-9.965c0-.72-.584-1.304-1.304-1.304H25.73V23.47s.036 1.123.15 1.831c.18 1.113.3 1.777.804 2.772.51 1.007 1.856 2.215 1.856 2.215a7.015 7.015 0 004.38 1.516 6.736 6.736 0 003.823-1.17c2.447-1.67 3.494-4.149 3.028-7.164h-.013zm-29.468-.021c.521-3.397 3.404-5.863 6.851-5.863a7.316 7.316 0 012.173.33c.628.197 1.06.779 1.06 1.439v2.36a4.225 4.225 0 00-3.117-1.346c-1.16 0-2.242.442-3.042 1.242-.804.805-1.244 1.898-1.244 3.067 0 2.41 1.886 4.304 4.285 4.308a4.213 4.213 0 003.02-1.25 4.31 4.31 0 001.236-3.054v-6.83h1.305c.83 0 1.5.672 1.5 1.503v16.929H23.01c-.83 0-1.501-.673-1.501-1.503v-4.514a7.016 7.016 0 01-4.38 1.516 6.736 6.736 0 01-3.823-1.17c-2.447-1.67-3.495-4.15-3.029-7.164h.013z" fill="#FF5100"/><path d="M64.378 29.777a3.124 3.124 0 01-1.15.576 5.01 5.01 0 01-1.404.191c-1.248 0-2.213-.326-2.893-.98-.681-.653-1.022-1.605-1.022-2.855v-5.476h-1.873v-2.13h1.873v-2.6h2.66v2.6h3.043v2.13h-3.043v5.412c0 .554.135.98.404 1.279.27.284.66.426 1.17.426.596 0 1.093-.157 1.49-.469l.745 1.896zm6.921.767c-1.15 0-2.185-.248-3.107-.745a5.531 5.531 0 01-2.17-2.067c-.511-.895-.766-1.904-.766-3.026 0-1.122.255-2.123.766-3.004a5.531 5.531 0 012.17-2.067c.922-.497 1.958-.745 3.107-.745 1.163 0 2.206.248 3.128.745a5.382 5.382 0 012.15 2.067c.524.88.786 1.882.786 3.004s-.262 2.13-.787 3.026a5.382 5.382 0 01-2.15 2.067c-.921.497-1.964.745-3.127.745zm0-2.28c.979 0 1.787-.326 2.426-.98.638-.653.957-1.512.957-2.578 0-1.065-.319-1.924-.957-2.578-.639-.653-1.447-.98-2.426-.98-.979 0-1.788.327-2.426.98-.624.654-.936 1.513-.936 2.578 0 1.066.312 1.925.936 2.578.638.654 1.447.98 2.426.98zm13.715 2.28c-1.15 0-2.185-.248-3.107-.745a5.531 5.531 0 01-2.17-2.067c-.511-.895-.766-1.904-.766-3.026 0-1.122.255-2.123.766-3.004a5.531 5.531 0 012.17-2.067c.922-.497 1.958-.745 3.107-.745 1.163 0 2.206.248 3.128.745a5.382 5.382 0 012.15 2.067c.524.88.786 1.882.786 3.004s-.262 2.13-.787 3.026a5.382 5.382 0 01-2.15 2.067c-.921.497-1.964.745-3.127.745zm0-2.28c.979 0 1.787-.326 2.426-.98.638-.653.957-1.512.957-2.578 0-1.065-.319-1.924-.957-2.578-.639-.653-1.447-.98-2.426-.98-.979 0-1.787.327-2.426.98-.624.654-.936 1.513-.936 2.578 0 1.066.312 1.925.936 2.578.639.654 1.447.98 2.426.98zm8.608-13.679h2.66v15.81h-2.66v-15.81zm9.662 15.959c-.922 0-1.823-.12-2.703-.362-.879-.241-1.581-.547-2.106-.916l1.021-2.024c.511.34 1.121.618 1.83.83a8.01 8.01 0 002.128.299c1.589 0 2.383-.419 2.383-1.257 0-.398-.205-.675-.617-.831-.397-.156-1.042-.305-1.936-.448-.936-.142-1.702-.305-2.298-.49a3.636 3.636 0 01-1.532-.958c-.426-.47-.639-1.115-.639-1.94 0-1.079.447-1.938 1.341-2.577.908-.654 2.128-.98 3.66-.98.78 0 1.56.092 2.341.276.78.17 1.418.405 1.915.704l-1.022 2.024c-.964-.568-2.05-.852-3.255-.852-.781 0-1.376.12-1.788.362-.397.227-.596.532-.596.916 0 .426.213.731.639.916.44.17 1.113.334 2.021.49.908.142 1.653.306 2.235.49a3.419 3.419 0 011.489.938c.426.44.638 1.065.638 1.875 0 1.065-.461 1.917-1.383 2.556-.922.64-2.177.96-3.766.96z" fill="#000"/></svg>
